images/LINE.svg

<svg width="20" height="19" viewBox="0 0 20 19" fill="none" xmlns="http://www.w3.org/2000/svg">
<path d="M9.77778 0C15.169 0 19.5556 3.55911 19.5556 7.93467C19.5556 9.68611 18.8772 11.2628 17.4594 12.8162C15.4086 15.1776 10.8216 18.0534 9.77778 18.4934C8.76333 18.9212 8.88067 18.2527 8.92711 17.9887L8.93078 17.9667L9.07011 17.1294C9.10311 16.8801 9.13733 16.4927 9.03833 16.2458C8.92833 15.9732 8.49567 15.8314 8.17789 15.763C3.47844 15.1433 0 11.8568 0 7.93467C0 3.55911 4.38778 0 9.77778 0ZM6.138 9.394H4.27411V6.01089C4.27411 5.96053 4.25419 5.91222 4.2187 5.8765C4.18321 5.84078 4.13502 5.82055 4.08467 5.82022H3.39778C3.37274 5.82022 3.34795 5.82515 3.32481 5.83474C3.30168 5.84432 3.28066 5.85836 3.26296 5.87607C3.24525 5.89377 3.23121 5.91479 3.22162 5.93792C3.21204 5.96106 3.20711 5.98585 3.20711 6.01089V10.2716C3.20711 10.3217 3.22789 10.3693 3.26089 10.4023V10.4036L3.26333 10.406L3.26578 10.4084C3.28318 10.4255 3.30381 10.439 3.32648 10.448C3.34915 10.4571 3.37339 10.4615 3.39778 10.461H6.138C6.24311 10.461 6.32744 10.3754 6.32744 10.2703V9.58589C6.32761 9.56085 6.32283 9.53603 6.3134 9.51283C6.30397 9.48964 6.29006 9.46853 6.27246 9.45071C6.25487 9.43289 6.23394 9.41871 6.21087 9.40898C6.1878 9.39925 6.16304 9.39416 6.138 9.394ZM7.10478 5.82022C7.05421 5.82022 7.00571 5.84031 6.96996 5.87607C6.9342 5.91182 6.91411 5.96032 6.91411 6.01089V10.2716C6.91411 10.3767 6.99967 10.461 7.10478 10.461H7.79167C7.89678 10.461 7.98111 10.3754 7.98111 10.2716V6.01089C7.98111 5.96053 7.96119 5.91222 7.9257 5.8765C7.89021 5.84078 7.84202 5.82055 7.79167 5.82022H7.10478ZM11.8262 5.82022C11.7757 5.82022 11.7272 5.84031 11.6914 5.87607C11.6556 5.91182 11.6356 5.96032 11.6356 6.01089V8.54089L9.68367 5.90578L9.66778 5.88744L9.65556 5.874L9.65189 5.87033L9.63844 5.85933L9.63111 5.85444L9.62744 5.852L9.62133 5.84833L9.61156 5.84222H9.60911L9.60544 5.83978L9.59322 5.83489L9.58833 5.83244L9.57611 5.82878H9.57367L9.57 5.82756L9.559 5.82511H9.55167L9.548 5.82389H9.54311L9.54067 5.82267H8.83911C8.78875 5.82267 8.74044 5.84259 8.70472 5.87808C8.669 5.91357 8.64877 5.96176 8.64844 6.01211V10.2728C8.64844 10.3779 8.734 10.4622 8.83911 10.4622H9.52356C9.62989 10.4622 9.71544 10.3767 9.71544 10.2728V7.74278L11.671 10.3828C11.6847 10.4004 11.7007 10.416 11.7187 10.4292L11.7199 10.4304L11.7321 10.4378L11.737 10.4402L11.7468 10.4451L11.7553 10.4488L11.7614 10.4512L11.7737 10.4549H11.7773C11.7933 10.459 11.8097 10.4614 11.8262 10.4622H12.5107C12.617 10.4622 12.7026 10.3767 12.7026 10.2728V6.01089C12.7026 5.96032 12.6825 5.91182 12.6467 5.87607C12.611 5.84031 12.5625 5.82022 12.5119 5.82022H11.8262ZM16.489 6.69656V6.01211C16.4892 5.98707 16.4844 5.96225 16.475 5.93905C16.4655 5.91586 16.4516 5.89475 16.434 5.87693C16.4164 5.85911 16.3955 5.84493 16.3724 5.8352C16.3494 5.82547 16.3246 5.82038 16.2996 5.82022H13.5593C13.5101 5.8209 13.463 5.84011 13.4273 5.874H13.4261L13.4249 5.87645L13.4224 5.88011C13.3888 5.91547 13.3697 5.96212 13.3687 6.01089V10.2716C13.3687 10.3217 13.3894 10.3693 13.4224 10.4023L13.4249 10.406L13.4273 10.4084C13.4632 10.4419 13.5103 10.4607 13.5593 10.461H16.2996C16.4047 10.461 16.489 10.3754 16.489 10.2703V9.58589C16.4892 9.56085 16.4844 9.53603 16.475 9.51283C16.4655 9.48964 16.4516 9.46853 16.434 9.45071C16.4164 9.43289 16.3955 9.41871 16.3724 9.40898C16.3494 9.39925 16.3246 9.39416 16.2996 9.394H14.4344V8.67411H16.2983C16.4034 8.67411 16.4878 8.58856 16.4878 8.48345V7.799C16.4879 7.77396 16.4832 7.74914 16.4737 7.72594C16.4643 7.70275 16.4504 7.68164 16.4328 7.66382C16.4152 7.646 16.3943 7.63182 16.3712 7.62209C16.3481 7.61236 16.3234 7.60727 16.2983 7.60711H14.4344V6.88722H16.2983C16.4034 6.88722 16.4878 6.80167 16.4878 6.69656H16.489Z" fill="#F7F7F7"/>
</svg>

<?xml version="1.0" encoding="UTF-8"?>
<svg id="_圖層_1" data-name="圖層_1" xmlns="http://www.w3.org/2000/svg" version="1.1" viewBox="0 0 19.56 18.63">
  <!-- Generator: Adobe Illustrator 30.6.0, SVG Export Plug-In . SVG Version: 2.1.4 Build 109)  -->
  <defs>
    <style>
      .st0 {
        fill: #f7f7f7;
      }
    </style>
  </defs>
  <path class="st0" d="M9.78,0c5.39,0,9.78,3.56,9.78,7.93,0,1.75-.68,3.33-2.1,4.88-2.05,2.36-6.64,5.24-7.68,5.68-1.01.43-.9-.24-.85-.5v-.02s.14-.84.14-.84c.03-.25.07-.64-.03-.88-.11-.27-.54-.41-.86-.48C3.48,15.14,0,11.86,0,7.93,0,3.56,4.39,0,9.78,0ZM6.14,9.39h-1.86v-3.38c0-.05-.02-.1-.06-.13-.04-.04-.08-.06-.13-.06h-.69s-.05,0-.07.01c-.02,0-.04.02-.06.04-.02.02-.03.04-.04.06,0,.02-.01.05-.01.07v4.26c0,.05.02.1.05.13h0s0,0,0,0h0s.04.03.06.04c.02,0,.05.01.07.01h2.74c.11,0,.19-.09.19-.19v-.68s0-.05-.01-.07c0-.02-.02-.04-.04-.06-.02-.02-.04-.03-.06-.04-.02,0-.05-.01-.07-.01ZM7.1,5.82c-.05,0-.1.02-.13.06-.04.04-.06.08-.06.13v4.26c0,.11.09.19.19.19h.69c.11,0,.19-.09.19-.19v-4.26c0-.05-.02-.1-.06-.13-.04-.04-.08-.06-.13-.06h-.69ZM11.83,5.82c-.05,0-.1.02-.13.06-.04.04-.06.08-.06.13v2.53l-1.95-2.64-.02-.02h-.01s0-.02,0-.02h-.01s0-.02,0-.02h0s0,0,0,0h0s0,0,0,0h0s-.01,0-.01,0h0s-.01,0-.01,0h0s-.01,0-.01,0h-.01s0,0,0,0h0s-.7,0-.7,0c-.05,0-.1.02-.13.06-.04.04-.06.08-.06.13v4.26c0,.11.09.19.19.19h.68c.11,0,.19-.09.19-.19v-2.53l1.96,2.64s.03.03.05.05h0s.01,0,.01,0h0s0,0,0,0h0s0,0,0,0h.01s0,0,0,0c.02,0,.03,0,.05,0h.68c.11,0,.19-.09.19-.19v-4.26c0-.05-.02-.1-.06-.13-.04-.04-.08-.06-.13-.06h-.69ZM16.49,6.7v-.68s0-.05-.01-.07c0-.02-.02-.04-.04-.06-.02-.02-.04-.03-.06-.04-.02,0-.05-.01-.07-.01h-2.74s-.1.02-.13.05h0s0,0,0,0c-.03.04-.05.08-.05.13v4.26c0,.05.02.1.05.13h0s0,0,0,0c.04.03.08.05.13.05h2.74c.11,0,.19-.09.19-.19v-.68s0-.05-.01-.07c0-.02-.02-.04-.04-.06-.02-.02-.04-.03-.06-.04-.02,0-.05-.01-.07-.01h-1.87v-.72h1.86c.11,0,.19-.09.19-.19v-.68s0-.05-.01-.07c0-.02-.02-.04-.04-.06-.02-.02-.04-.03-.06-.04-.02,0-.05-.01-.07-.01h-1.86v-.72h1.86c.11,0,.19-.09.19-.19h0Z"/>
</svg>
